svgs/nytimes.svg

<svg width="192" height="192" viewBox="0 0 192 192" fill="none" xmlns="http://www.w3.org/2000/svg">
<path d="M87.6622 75.7297L68.4054 83.8378" stroke="black" stroke-width="6"/>
<path d="M56.7704 72.8401C48.2699 66.3013 51.5393 51.8773 66.0402 51.8773C78.7717 51.8773 109.774 66.3013 126.467 66.3013C164.585 66.3013 158.854 16.7213 121.005 21.2985C139.006 23.8371 133.852 39.1457 125.659 39.1457C103.158 39.1457 88.2339 25.3757 66.9249 25.3757C38.0384 25.3757 31.9611 67.0321 56.7704 72.9171" stroke="black" stroke-width="10" stroke-linecap="round" stroke-linejoin="round"/>
<path d="M140.999 100.194L126.666 85.8601L112.333 100.194L126.666 114.527L140.999 100.194Z" stroke="black" stroke-width="8" stroke-linecap="round" stroke-linejoin="round"/>
<path d="M126.659 85.8794V66.3012M126.659 114.573V143.998" stroke="black" stroke-width="6" stroke-linecap="round" stroke-linejoin="round"/>
<path d="M81.6329 79.4267L103.878 69.6487V124.723L81.5811 134.514V79.4745" stroke="black" stroke-width="8" stroke-linecap="round" stroke-linejoin="round"/>
<path d="M154.776 115.227C147.968 131.651 136.814 147.499 103.966 147.499C80.0026 147.499 63.8477 129.267 63.8477 105.688C63.8477 82.1099 69.6558 71.3016 87.2723 59.9547" stroke="black" stroke-width="10" stroke-linecap="round" stroke-linejoin="round"/>
<path d="M154.776 115.227C158.123 139.075 140.891 171 98.9653 171C66.3864 171 38 147.922 38 115.458C38 81.7253 65.7709 66.5705 87.2723 59.9547" stroke="black" stroke-width="10" stroke-linecap="round" stroke-linejoin="round"/>
</svg>

<svg xmlns="http://www.w3.org/2000/svg" width="192" height="192" fill="none" viewBox="0 0 192 192"><path stroke="#000" stroke-width="6" d="m87.662 75.73-19.257 8.108"/><path stroke="#000" stroke-linecap="round" stroke-linejoin="round" stroke-width="10" d="M56.77 72.84c-8.5-6.539-5.23-20.963 9.27-20.963 12.732 0 43.734 14.424 60.427 14.424 38.118 0 32.387-49.58-5.462-45.002 18.001 2.538 12.847 17.847 4.654 17.847-22.501 0-37.425-13.77-58.734-13.77-28.887 0-34.964 41.656-10.155 47.541"/><path stroke="#000" stroke-linecap="round" stroke-linejoin="round" stroke-width="8" d="M140.999 100.194 126.666 85.86l-14.333 14.334 14.333 14.333 14.333-14.333Z"/><path stroke="#000" stroke-linecap="round" stroke-linejoin="round" stroke-width="6" d="M126.659 85.88V66.3m0 48.272v29.425"/><path stroke="#000" stroke-linecap="round" stroke-linejoin="round" stroke-width="8" d="m81.633 79.427 22.245-9.778v55.074l-22.297 9.791v-55.04"/><path stroke="#000" stroke-linecap="round" stroke-linejoin="round" stroke-width="10" d="M154.776 115.227c-6.808 16.424-17.962 32.272-50.81 32.272-23.963 0-40.118-18.232-40.118-41.811 0-23.578 5.808-34.386 23.424-45.733"/><path stroke="#000" stroke-linecap="round" stroke-linejoin="round" stroke-width="10" d="M154.776 115.227C158.123 139.075 140.891 171 98.966 171 66.385 171 38 147.922 38 115.458c0-33.733 27.77-48.888 49.272-55.503"/></svg>
